X:2927
T:Cherry Cheek'd Patty. JC.003
M:6/8
L:1/8
Q:110
S:John Clare,Poet,Helpston. (1793-1864)
R:Air
O:England
A:Northamptonshire
N:No Time Sig given.
Z:P Headford
K:F
A B A c2 c|F G F A> A A|G A G BG F|E2 D C2 A|A>BA c2c|F>GF A> A A|!
G A G BG F|E2 D C2 C|F F F F2 a|C|G G G G2 b|G|G c c c2 c|!
G d d d> c =B|cec =BdB|A c A G=BG|F A F EG E|DE C G=Bd|!
Gc>e G=B>d|Gc>e G3|[C6c6][G,6G6]|c2cd2G|c2e e/f/ge|e/f/ge e/f/ge|!
c|A c c A c c|d c B A2c'|C|F F F g f g|a b a g2C|F F F G F G|!
AB A G2 c'|ggg g2 A/ A/|B d d d c B|A c c c BA|G B B B A G|!
B A B G2 G|E D E C c/ c/|c A c c A c|d3fed|c d c (cB) A|A c A G F G|!
A2 A A z c|d3f e d|c dc cB A|A cA G F G|F [A,F][A,F] F2:|]
W:Song text exists. See Deacon.


